assets/1. 1-F/Banana/Color/Banana-color.svg

<svg width="100%" height="100%" viewBox="0 0 32 32" fill="none" xmlns="http://www.w3.org/2000/svg">
<rect x="2" y="25.1097" width="3.6346" height="2.64334" rx="1.32167" fill="url(#paint0_linear_18_33099)"/>
<path d="M29.2291 17.6803H19.9412C19.2565 17.6803 18.9122 16.8285 19.3968 16.3306L21.5414 14.127C23.2221 12.4002 25.9462 12.4002 27.6268 14.127L29.7715 16.3306C30.2582 16.8306 29.9138 17.6803 29.2291 17.6803Z" fill="url(#paint1_linear_18_33099)"/>
<g filter="url(#filter0_f_18_33099)">
<path d="M21.7206 14.3014C23.3031 12.6754 25.8652 12.6754 27.4477 14.3014L29.5923 16.505C29.9345 16.8565 29.6788 17.4303 29.2291 17.4303H19.9412C19.4911 17.4303 19.2361 16.8541 19.5759 16.505L21.7206 14.3014Z" fill="url(#paint2_linear_18_33099)"/>
</g>
<g filter="url(#filter1_f_18_33099)">
<path d="M29.5693 16.6964L27.4247 14.4929C26.6235 13.7357 25.2603 13.0155 24 13.427" stroke="url(#paint3_linear_18_33099)" stroke-opacity="0.6" stroke-width="0.15"/>
</g>
<path d="M13.8949 17.5468H4.60694C3.9223 17.5468 3.57792 16.6951 4.06253 16.1972L6.20717 13.9936C7.88783 12.2668 10.6119 12.2668 12.2926 13.9936L14.4393 16.1972C14.9239 16.6951 14.5795 17.5468 13.8949 17.5468Z" fill="url(#paint4_linear_18_33099)"/>
<g filter="url(#filter2_f_18_33099)">
<path d="M6.35053 14.1331C7.95267 12.4869 10.5472 12.4869 12.1493 14.1331L14.296 16.3366C14.6647 16.7155 14.3919 17.3468 13.8949 17.3468H4.60697C4.10998 17.3468 3.83708 16.7155 4.20588 16.3366L6.35053 14.1331Z" fill="url(#paint5_linear_18_33099)"/>
</g>
<path d="M16.6995 2.02862C21.6198 1.32094 24.6594 13.9257 22.4446 19.0193C20.2299 24.1129 15.4477 25.2295 10.3748 27.2233C9.81392 27.4437 9.23651 27.5475 8.66942 27.5475C6.74542 27.5475 5.69991 29.1302 4.9699 27.1725C4.0275 24.6384 5.26273 21.7971 7.72907 20.8288C10.414 19.7757 11.841 17.7523 12.9154 15.0105C14.0104 12.2158 14.0847 11.0696 14.0805 8.02272C14.0764 5.58609 13.9156 2.42907 16.6995 2.02862Z" fill="url(#paint6_linear_18_33099)"/>
<g filter="url(#filter3_f_18_33099)">
<path d="M17.0457 3.0448C21.0159 3.0448 23.2307 13.9381 21.0159 19.0317C18.8012 24.1253 15.4477 25.2295 10.3748 27.2233C9.81392 27.4436 9.23651 27.5475 8.66942 27.5475C6.74542 27.5475 5.69991 29.1302 4.9699 27.1724C4.0275 24.6383 5.26273 21.797 7.72907 20.8287C10.414 19.7757 12.9004 17.7504 13.9748 15.0087C15.0698 12.214 15.1441 11.0677 15.1399 8.02086C15.1358 5.58423 15.1399 3.73298 17.0457 3.0448Z" fill="url(#paint7_linear_18_33099)"/>
</g>
<g filter="url(#filter4_f_18_33099)">
<path d="M17.5965 3C21.5668 3 23.7815 13.8933 21.5668 18.9869C19.352 24.0805 15.9986 25.1847 10.9257 27.1785C10.3648 27.3988 9.78737 27.5027 9.22027 27.5027C7.29628 27.5027 6.25076 29.0854 5.52076 27.1276C4.57835 24.5935 8.88443 22.7579 11.3508 21.7896C14.0357 20.7365 16.5221 18.7113 17.5965 15.9695C18.6915 13.1748 18.7658 12.0285 18.7616 8.98171C18.7575 6.54508 16.8025 4.0058 17.5965 3Z" fill="url(#paint8_linear_18_33099)"/>
</g>
<path d="M22.4448 19.0193L12.9857 14.6758C11.8989 17.1739 9.9316 19.0871 7.44463 20.066C4.5638 21.1975 2.63774 24.2951 4.21529 27.4522C7.36627 33.7556 22.4448 27.3865 22.4448 19.0193Z" fill="url(#paint9_linear_18_33099)"/>
<path d="M22.4448 19.0193L12.9857 14.6758C11.8989 17.1739 9.9316 19.0871 7.44463 20.066C4.5638 21.1975 2.63774 24.2951 4.21529 27.4522C7.36627 33.7556 22.4448 27.3865 22.4448 19.0193Z" fill="url(#paint10_radial_18_33099)"/>
<path d="M22.4448 19.0193L12.9857 14.6758C11.8989 17.1739 9.9316 19.0871 7.44463 20.066C4.5638 21.1975 2.63774 24.2951 4.21529 27.4522C7.36627 33.7556 22.4448 27.3865 22.4448 19.0193Z" fill="url(#paint11_radial_18_33099)"/>
<path d="M22.4448 19.0193L12.9857 14.6758C11.8989 17.1739 9.9316 19.0871 7.44463 20.066C4.5638 21.1975 2.63774 24.2951 4.21529 27.4522C7.36627 33.7556 22.4448 27.3865 22.4448 19.0193Z" fill="url(#paint12_radial_18_33099)"/>
<path d="M22.4448 19.0193L12.9857 14.6758C11.8989 17.1739 9.9316 19.0871 7.44463 20.066C4.5638 21.1975 2.63774 24.2951 4.21529 27.4522C7.36627 33.7556 22.4448 27.3865 22.4448 19.0193Z" fill="url(#paint13_linear_18_33099)"/>
<path d="M22.4448 19.0193L12.9857 14.6758C11.8989 17.1739 9.9316 19.0871 7.44463 20.066C4.5638 21.1975 2.63774 24.2951 4.21529 27.4522C7.36627 33.7556 22.4448 27.3865 22.4448 19.0193Z" fill="url(#paint14_linear_18_33099)"/>
<path d="M18.0118 17.1963C16.1534 23.0149 10.7191 25.751 5.76978 26.0046" stroke="#F49000" stroke-opacity="0.6" stroke-width="1.5" stroke-miterlimit="10" stroke-linecap="round"/>
<path d="M23.2406 26.467L13.0432 14.6864H22.0466C24.1727 14.7945 25.841 16.5976 25.841 18.7842V26.3356C25.841 27.6658 24.6437 28.072 23.2406 26.467Z" fill="url(#paint15_linear_18_33099)"/>
<g filter="url(#filter5_f_18_33099)">
<path d="M23.3372 26.3689L13.3477 14.8033H21.992C24.1181 14.9114 25.6726 16.6894 25.6726 18.876V26.3689C25.6726 27.699 24.5535 27.8123 23.3372 26.3689Z" fill="url(#paint16_linear_18_33099)"/>
<path d="M23.3372 26.3689L13.3477 14.8033H21.992C24.1181 14.9114 25.6726 16.6894 25.6726 18.876V26.3689C25.6726 27.699 24.5535 27.8123 23.3372 26.3689Z" fill="url(#paint17_linear_18_33099)"/>
<path d="M23.3372 26.3689L13.3477 14.8033H21.992C24.1181 14.9114 25.6726 16.6894 25.6726 18.876V26.3689C25.6726 27.699 24.5535 27.8123 23.3372 26.3689Z" fill="url(#paint18_linear_18_33099)"/>
</g>
<g filter="url(#filter6_f_18_33099)">
<path d="M13.8031 15.0017H21.9642C23.8274 15.0017 25.4543 16.9698 25.4543 18.8452V26.3381" stroke="url(#paint19_linear_18_33099)" stroke-width="0.2"/>
</g>
<defs>
<filter id="filter0_f_18_33099" x="19.1193" y="12.7819" width="10.9311" height="4.94839" filterUnits="userSpaceOnUse" color-interpolation-filters="sRGB">
<feFlood flood-opacity="0" result="BackgroundImageFix"/>
<feBlend mode="normal" in="SourceGraphic" in2="BackgroundImageFix" result="shape"/>
<feGaussianBlur stdDeviation="0.15" result="effect1_foregroundBlur_18_33099"/>
</filter>
<filter id="filter1_f_18_33099" x="23.6767" y="12.9322" width="6.24636" height="4.1166" filterUnits="userSpaceOnUse" color-interpolation-filters="sRGB">
<feFlood flood-opacity="0" result="BackgroundImageFix"/>
<feBlend mode="normal" in="SourceGraphic" in2="BackgroundImageFix" result="shape"/>
<feGaussianBlur stdDeviation="0.15" result="effect1_foregroundBlur_18_33099"/>
</filter>
<filter id="filter2_f_18_33099" x="3.83528" y="12.6984" width="10.8313" height="4.84836" filterUnits="userSpaceOnUse" color-interpolation-filters="sRGB">
<feFlood flood-opacity="0" result="BackgroundImageFix"/>
<feBlend mode="normal" in="SourceGraphic" in2="BackgroundImageFix" result="shape"/>
<feGaussianBlur stdDeviation="0.1" result="effect1_foregroundBlur_18_33099"/>
</filter>
<filter id="filter3_f_18_33099" x="3.40369" y="1.7948" width="19.7401" height="27.6069" filterUnits="userSpaceOnUse" color-interpolation-filters="sRGB">
<feFlood flood-opacity="0" result="BackgroundImageFix"/>
<feBlend mode="normal" in="SourceGraphic" in2="BackgroundImageFix" result="shape"/>
<feGaussianBlur stdDeviation="0.625" result="effect1_foregroundBlur_18_33099"/>
</filter>
<filter id="filter4_f_18_33099" x="4.13818" y="1.75" width="19.5565" height="27.6069" filterUnits="userSpaceOnUse" color-interpolation-filters="sRGB">
<feFlood flood-opacity="0" result="BackgroundImageFix"/>
<feBlend mode="normal" in="SourceGraphic" in2="BackgroundImageFix" result="shape"/>
<feGaussianBlur stdDeviation="0.625" result="effect1_foregroundBlur_18_33099"/>
</filter>
<filter id="filter5_f_18_33099" x="13.0477" y="14.5033" width="12.925" height="13.2061" filterUnits="userSpaceOnUse" color-interpolation-filters="sRGB">
<feFlood flood-opacity="0" result="BackgroundImageFix"/>
<feBlend mode="normal" in="SourceGraphic" in2="BackgroundImageFix" result="shape"/>
<feGaussianBlur stdDeviation="0.15" result="effect1_foregroundBlur_18_33099"/>
</filter>
<filter id="filter6_f_18_33099" x="13.6031" y="14.7017" width="12.1512" height="11.8363" filterUnits="userSpaceOnUse" color-interpolation-filters="sRGB">
<feFlood flood-opacity="0" result="BackgroundImageFix"/>
<feBlend mode="normal" in="SourceGraphic" in2="BackgroundImageFix" result="shape"/>
<feGaussianBlur stdDeviation="0.1" result="effect1_foregroundBlur_18_33099"/>
</filter>
<linearGradient id="paint0_linear_18_33099" x1="3.8173" y1="25.1097" x2="3.8173" y2="27.7531" gradientUnits="userSpaceOnUse">
<stop stop-color="#D88D2F"/>
<stop offset="0.510417" stop-color="#FF971C"/>
<stop offset="1" stop-color="#FF9115"/>
</linearGradient>
<linearGradient id="paint1_linear_18_33099" x1="24.1755" y1="16.9223" x2="28.4184" y2="14.4031" gradientUnits="userSpaceOnUse">
<stop stop-color="#FEB568"/>
<stop offset="1" stop-color="#FFC587"/>
</linearGradient>
<linearGradient id="paint2_linear_18_33099" x1="23.0706" y1="13.3424" x2="29.7504" y2="17.4303" gradientUnits="userSpaceOnUse">
<stop stop-color="#FFC766"/>
<stop offset="1" stop-color="#FFC68D"/>
</linearGradient>
<linearGradient id="paint3_linear_18_33099" x1="23.8173" y1="13.3071" x2="29.5693" y2="17.5052" gradientUnits="userSpaceOnUse">
<stop stop-color="#FFD986" stop-opacity="0"/>
<stop offset="0.447917" stop-color="#FFEECA"/>
<stop offset="1" stop-color="#FFD986" stop-opacity="0"/>
</linearGradient>
<linearGradient id="paint4_linear_18_33099" x1="5.59455" y1="14.4527" x2="11.9744" y2="16.7756" gradientUnits="userSpaceOnUse">
<stop stop-color="#FFB36D"/>
<stop offset="0.5" stop-color="#F8A65B"/>
<stop offset="1" stop-color="#F8A65B"/>
</linearGradient>
<linearGradient id="paint5_linear_18_33099" x1="5.36556" y1="15.1226" x2="12.3016" y2="16.0885" gradientUnits="userSpaceOnUse">
<stop stop-color="#FFBB71"/>
<stop offset="0.520833" stop-color="#FFBB6C"/>
<stop offset="1" stop-color="#EEA55B"/>
</linearGradient>
<linearGradient id="paint6_linear_18_33099" x1="23.1801" y1="11.6206" x2="13.1283" y2="14.5321" gradientUnits="userSpaceOnUse">
<stop stop-color="#FFE78C"/>
<stop offset="1" stop-color="#CF862F"/>
</linearGradient>
<linearGradient id="paint7_linear_18_33099" x1="21.8938" y1="7.6503" x2="14.1871" y2="10.9853" gradientUnits="userSpaceOnUse">
<stop stop-color="#FFF18F"/>
<stop offset="0.758736" stop-color="#FFAA4F"/>
<stop offset="1" stop-color="#ED9B3A"/>
</linearGradient>
<linearGradient id="paint8_linear_18_33099" x1="20.963" y1="5.90342" x2="20.4336" y2="14.7439" gradientUnits="userSpaceOnUse">
<stop stop-color="#FFEF91"/>
<stop offset="1" stop-color="#FFEF91" stop-opacity="0"/>
</linearGradient>
<linearGradient id="paint9_linear_18_33099" x1="17.374" y1="19.1095" x2="4.41816" y2="27.8263" gradientUnits="userSpaceOnUse">
<stop stop-color="#FFCB1B"/>
<stop offset="0.494792" stop-color="#FFCF19"/>
<stop offset="1" stop-color="#FFBB13"/>
</linearGradient>
<radialGradient id="paint10_radial_18_33099" cx="0" cy="0" r="1" gradientUnits="userSpaceOnUse" gradientTransform="translate(10.4483 16.3631) rotate(66.1356) scale(14.167 17.3752)">
<stop stop-color="#CE8418"/>
<stop offset="0.36059" stop-color="#CE8418" stop-opacity="0"/>
</radialGradient>
<radialGradient id="paint11_radial_18_33099" cx="0" cy="0" r="1" gradientUnits="userSpaceOnUse" gradientTransform="translate(4.11964 19.7662) rotate(60.1885) scale(12.7299 15.6126)">
<stop stop-color="#A9913F" stop-opacity="0.8"/>
<stop offset="0.431161" stop-color="#A9913F" stop-opacity="0"/>
</radialGradient>
<radialGradient id="paint12_radial_18_33099" cx="0" cy="0" r="1" gradientUnits="userSpaceOnUse" gradientTransform="translate(6.3287 31.7071) rotate(-62.3447) scale(15.4357 18.9312)">
<stop stop-color="#F89434"/>
<stop offset="0.348958" stop-color="#F89434" stop-opacity="0"/>
</radialGradient>
<linearGradient id="paint13_linear_18_33099" x1="18.0904" y1="19.2886" x2="11.9409" y2="24.1246" gradientUnits="userSpaceOnUse">
<stop stop-color="#F18C1B" stop-opacity="0.75"/>
<stop offset="0.796875" stop-color="#F18C1B" stop-opacity="0"/>
</linearGradient>
<linearGradient id="paint14_linear_18_33099" x1="18.0904" y1="19.2886" x2="12.12" y2="24.662" gradientUnits="userSpaceOnUse">
<stop stop-color="#C76D09" stop-opacity="0.4"/>
<stop offset="0.28125" stop-color="#C76D09" stop-opacity="0"/>
</linearGradient>
<linearGradient id="paint15_linear_18_33099" x1="19.4421" y1="14.6864" x2="19.4421" y2="27.5111" gradientUnits="userSpaceOnUse">
<stop stop-color="#FFB33D"/>
<stop offset="1" stop-color="#FFC160"/>
</linearGradient>
<linearGradient id="paint16_linear_18_33099" x1="19.5101" y1="14.8033" x2="19.5101" y2="27.4094" gradientUnits="userSpaceOnUse">
<stop stop-color="#FFC173"/>
<stop offset="1" stop-color="#FFD197"/>
</linearGradient>
<linearGradient id="paint17_linear_18_33099" x1="13.0836" y1="14.8033" x2="21.7098" y2="17.8719" gradientUnits="userSpaceOnUse">
<stop stop-color="#FFAD5C"/>
<stop offset="1" stop-color="#FFAD5C" stop-opacity="0"/>
</linearGradient>
<linearGradient id="paint18_linear_18_33099" x1="24.7282" y1="15.3401" x2="21.0506" y2="20.2223" gradientUnits="userSpaceOnUse">
<stop stop-color="#FFC968"/>
<stop offset="1" stop-color="#FFC968" stop-opacity="0"/>
</linearGradient>
<linearGradient id="paint19_linear_18_33099" x1="13.8031" y1="15.1854" x2="25.0082" y2="27.8338" gradientUnits="userSpaceOnUse">
<stop offset="0.216395" stop-color="#FFD683" stop-opacity="0"/>
<stop offset="0.494792" stop-color="#FFD683"/>
<stop offset="0.718471" stop-color="#FFD683" stop-opacity="0"/>
</linearGradient>
</defs>
</svg>

<svg width="100%" height="100%" viewBox="0 0 32 32" xmlns="http://www.w3.org/2000/svg"><rect width="3.635" height="2.643" x="2" y="25.11" fill="url(#a)" rx="1.322"/><path fill="url(#b)" d="M29.23 17.68H19.94c-.684 0-1.029-.852-.544-1.35l2.144-2.203a4.22 4.22 0 0 1 6.086 0l2.145 2.204c.486.5.142 1.35-.543 1.35"/><g filter="url(#c)"><path fill="url(#d)" d="M21.72 14.301a3.97 3.97 0 0 1 5.728 0l2.144 2.204c.343.352.087.925-.363.925h-9.288c-.45 0-.705-.576-.365-.925z"/></g><g filter="url(#e)"><path stroke="url(#f)" stroke-opacity=".6" stroke-width=".15" d="m29.57 16.696-2.145-2.203c-.802-.757-2.165-1.478-3.425-1.066"/></g><path fill="url(#g)" d="M13.895 17.547H4.607c-.685 0-1.03-.852-.544-1.35l2.144-2.203a4.22 4.22 0 0 1 6.086 0l2.146 2.203c.485.498.14 1.35-.544 1.35"/><g filter="url(#h)"><path fill="url(#i)" d="M6.35 14.133a4.02 4.02 0 0 1 5.8 0l2.146 2.204c.369.378.096 1.01-.401 1.01H4.607c-.497 0-.77-.632-.401-1.01z"/></g><path fill="url(#j)" d="M16.7 2.029c4.92-.708 7.96 11.897 5.745 16.99-2.215 5.094-6.997 6.21-12.07 8.204-.561.22-1.138.325-1.706.325-1.924 0-2.97 1.582-3.7-.375-.942-2.535.294-5.376 2.76-6.344 2.685-1.053 4.112-3.077 5.186-5.818 1.095-2.795 1.17-3.941 1.166-6.988-.005-2.437-.165-5.594 2.619-5.994"/><g filter="url(#k)"><path fill="url(#l)" d="M17.046 3.045c3.97 0 6.185 10.893 3.97 15.987s-5.568 6.198-10.641 8.191c-.561.22-1.138.325-1.706.325-1.924 0-2.97 1.582-3.7-.376-.942-2.534.294-5.375 2.76-6.343 2.685-1.053 5.171-3.079 6.246-5.82 1.095-2.795 1.17-3.941 1.165-6.988-.004-2.437 0-4.288 1.906-4.976"/></g><g filter="url(#m)"><path fill="url(#n)" d="M17.597 3c3.97 0 6.185 10.893 3.97 15.987s-5.568 6.198-10.641 8.192c-.561.22-1.139.324-1.706.324-1.924 0-2.97 1.582-3.7-.375-.942-2.535 3.364-4.37 5.83-5.338 2.686-1.053 5.172-3.079 6.246-5.82 1.096-2.795 1.17-3.942 1.166-6.988-.005-2.437-1.96-4.976-1.166-5.982"/></g><path fill="url(#o)" d="m22.445 19.02-9.46-4.344c-1.086 2.498-3.053 4.411-5.54 5.39-2.881 1.132-4.807 4.23-3.23 7.386 3.151 6.304 18.23-.066 18.23-8.433"/><path fill="url(#p)" d="m22.445 19.02-9.46-4.344c-1.086 2.498-3.053 4.411-5.54 5.39-2.881 1.132-4.807 4.23-3.23 7.386 3.151 6.304 18.23-.066 18.23-8.433"/><path fill="url(#q)" d="m22.445 19.02-9.46-4.344c-1.086 2.498-3.053 4.411-5.54 5.39-2.881 1.132-4.807 4.23-3.23 7.386 3.151 6.304 18.23-.066 18.23-8.433"/><path fill="url(#r)" d="m22.445 19.02-9.46-4.344c-1.086 2.498-3.053 4.411-5.54 5.39-2.881 1.132-4.807 4.23-3.23 7.386 3.151 6.304 18.23-.066 18.23-8.433"/><path fill="url(#s)" d="m22.445 19.02-9.46-4.344c-1.086 2.498-3.053 4.411-5.54 5.39-2.881 1.132-4.807 4.23-3.23 7.386 3.151 6.304 18.23-.066 18.23-8.433"/><path fill="url(#t)" d="m22.445 19.02-9.46-4.344c-1.086 2.498-3.053 4.411-5.54 5.39-2.881 1.132-4.807 4.23-3.23 7.386 3.151 6.304 18.23-.066 18.23-8.433"/><path stroke="#F49000" stroke-linecap="round" stroke-miterlimit="10" stroke-opacity=".6" stroke-width="1.5" d="M18.012 17.196c-1.859 5.819-7.293 8.555-12.242 8.809"/><path fill="url(#u)" d="m23.24 26.467-10.197-11.78h9.004c2.126.107 3.794 1.91 3.794 4.097v7.552c0 1.33-1.197 1.736-2.6.131"/><g filter="url(#v)"><path fill="url(#w)" d="m23.337 26.369-9.99-11.566h8.645c2.126.108 3.68 1.886 3.68 4.073v7.493c0 1.33-1.119 1.443-2.335 0"/><path fill="url(#x)" d="m23.337 26.369-9.99-11.566h8.645c2.126.108 3.68 1.886 3.68 4.073v7.493c0 1.33-1.119 1.443-2.335 0"/><path fill="url(#y)" d="m23.337 26.369-9.99-11.566h8.645c2.126.108 3.68 1.886 3.68 4.073v7.493c0 1.33-1.119 1.443-2.335 0"/></g><g filter="url(#z)"><path stroke="url(#A)" stroke-width=".2" d="M13.803 15.002h8.161c1.863 0 3.49 1.968 3.49 3.843v7.493"/></g><defs><linearGradient id="a" x1="3.817" x2="3.817" y1="25.11" y2="27.753" gradientUnits="userSpaceOnUse"><stop stop-color="#D88D2F"/><stop offset=".51" stop-color="#FF971C"/><stop offset="1" stop-color="#FF9115"/></linearGradient><linearGradient id="b" x1="24.175" x2="28.418" y1="16.922" y2="14.403" gradientUnits="userSpaceOnUse"><stop stop-color="#FEB568"/><stop offset="1" stop-color="#FFC587"/></linearGradient><linearGradient id="d" x1="23.071" x2="29.75" y1="13.342" y2="17.43" gradientUnits="userSpaceOnUse"><stop stop-color="#FFC766"/><stop offset="1" stop-color="#FFC68D"/></linearGradient><linearGradient id="f" x1="23.817" x2="29.569" y1="13.307" y2="17.505" gradientUnits="userSpaceOnUse"><stop stop-color="#FFD986" stop-opacity="0"/><stop offset=".448" stop-color="#FFEECA"/><stop offset="1" stop-color="#FFD986" stop-opacity="0"/></linearGradient><linearGradient id="g" x1="5.595" x2="11.974" y1="14.453" y2="16.776" gradientUnits="userSpaceOnUse"><stop stop-color="#FFB36D"/><stop offset=".5" stop-color="#F8A65B"/><stop offset="1" stop-color="#F8A65B"/></linearGradient><linearGradient id="i" x1="5.366" x2="12.302" y1="15.123" y2="16.088" gradientUnits="userSpaceOnUse"><stop stop-color="#FFBB71"/><stop offset=".521" stop-color="#FFBB6C"/><stop offset="1" stop-color="#EEA55B"/></linearGradient><linearGradient id="j" x1="23.18" x2="13.128" y1="11.621" y2="14.532" gradientUnits="userSpaceOnUse"><stop stop-color="#FFE78C"/><stop offset="1" stop-color="#CF862F"/></linearGradient><linearGradient id="l" x1="21.894" x2="14.187" y1="7.65" y2="10.985" gradientUnits="userSpaceOnUse"><stop stop-color="#FFF18F"/><stop offset=".759" stop-color="#FFAA4F"/><stop offset="1" stop-color="#ED9B3A"/></linearGradient><linearGradient id="n" x1="20.963" x2="20.434" y1="5.903" y2="14.744" gradientUnits="userSpaceOnUse"><stop stop-color="#FFEF91"/><stop offset="1" stop-color="#FFEF91" stop-opacity="0"/></linearGradient><linearGradient id="o" x1="17.374" x2="4.418" y1="19.11" y2="27.826" gradientUnits="userSpaceOnUse"><stop stop-color="#FFCB1B"/><stop offset=".495" stop-color="#FFCF19"/><stop offset="1" stop-color="#FFBB13"/></linearGradient><linearGradient id="s" x1="18.09" x2="11.941" y1="19.289" y2="24.125" gradientUnits="userSpaceOnUse"><stop stop-color="#F18C1B" stop-opacity=".75"/><stop offset=".797" stop-color="#F18C1B" stop-opacity="0"/></linearGradient><linearGradient id="t" x1="18.09" x2="12.12" y1="19.289" y2="24.662" gradientUnits="userSpaceOnUse"><stop stop-color="#C76D09" stop-opacity=".4"/><stop offset=".281" stop-color="#C76D09" stop-opacity="0"/></linearGradient><linearGradient id="u" x1="19.442" x2="19.442" y1="14.686" y2="27.511" gradientUnits="userSpaceOnUse"><stop stop-color="#FFB33D"/><stop offset="1" stop-color="#FFC160"/></linearGradient><linearGradient id="w" x1="19.51" x2="19.51" y1="14.803" y2="27.409" gradientUnits="userSpaceOnUse"><stop stop-color="#FFC173"/><stop offset="1" stop-color="#FFD197"/></linearGradient><linearGradient id="x" x1="13.084" x2="21.71" y1="14.803" y2="17.872" gradientUnits="userSpaceOnUse"><stop stop-color="#FFAD5C"/><stop offset="1" stop-color="#FFAD5C" stop-opacity="0"/></linearGradient><linearGradient id="y" x1="24.728" x2="21.051" y1="15.34" y2="20.222" gradientUnits="userSpaceOnUse"><stop stop-color="#FFC968"/><stop offset="1" stop-color="#FFC968" stop-opacity="0"/></linearGradient><linearGradient id="A" x1="13.803" x2="25.008" y1="15.185" y2="27.834" gradientUnits="userSpaceOnUse"><stop offset=".216" stop-color="#FFD683" stop-opacity="0"/><stop offset=".495" stop-color="#FFD683"/><stop offset=".718" stop-color="#FFD683" stop-opacity="0"/></linearGradient><filter id="c" width="10.931" height="4.948" x="19.119" y="12.782" color-interpolation-filters="sRGB" filterUnits="userSpaceOnUse"><feFlood flood-opacity="0" result="BackgroundImageFix"/><feBlend in="SourceGraphic" in2="BackgroundImageFix" result="shape"/><feGaussianBlur result="effect1_foregroundBlur_18_33099" stdDeviation=".15"/></filter><filter id="e" width="6.246" height="4.117" x="23.677" y="12.932" color-interpolation-filters="sRGB" filterUnits="userSpaceOnUse"><feFlood flood-opacity="0" result="BackgroundImageFix"/><feBlend in="SourceGraphic" in2="BackgroundImageFix" result="shape"/><feGaussianBlur result="effect1_foregroundBlur_18_33099" stdDeviation=".15"/></filter><filter id="h" width="10.831" height="4.848" x="3.835" y="12.698" color-interpolation-filters="sRGB" filterUnits="userSpaceOnUse"><feFlood flood-opacity="0" result="BackgroundImageFix"/><feBlend in="SourceGraphic" in2="BackgroundImageFix" result="shape"/><feGaussianBlur result="effect1_foregroundBlur_18_33099" stdDeviation=".1"/></filter><filter id="k" width="19.74" height="27.607" x="3.404" y="1.795" color-interpolation-filters="sRGB" filterUnits="userSpaceOnUse"><feFlood flood-opacity="0" result="BackgroundImageFix"/><feBlend in="SourceGraphic" in2="BackgroundImageFix" result="shape"/><feGaussianBlur result="effect1_foregroundBlur_18_33099" stdDeviation=".625"/></filter><filter id="m" width="19.556" height="27.607" x="4.138" y="1.75" color-interpolation-filters="sRGB" filterUnits="userSpaceOnUse"><feFlood flood-opacity="0" result="BackgroundImageFix"/><feBlend in="SourceGraphic" in2="BackgroundImageFix" result="shape"/><feGaussianBlur result="effect1_foregroundBlur_18_33099" stdDeviation=".625"/></filter><filter id="v" width="12.925" height="13.206" x="13.048" y="14.503" color-interpolation-filters="sRGB" filterUnits="userSpaceOnUse"><feFlood flood-opacity="0" result="BackgroundImageFix"/><feBlend in="SourceGraphic" in2="BackgroundImageFix" result="shape"/><feGaussianBlur result="effect1_foregroundBlur_18_33099" stdDeviation=".15"/></filter><filter id="z" width="12.151" height="11.836" x="13.603" y="14.702" color-interpolation-filters="sRGB" filterUnits="userSpaceOnUse"><feFlood flood-opacity="0" result="BackgroundImageFix"/><feBlend in="SourceGraphic" in2="BackgroundImageFix" result="shape"/><feGaussianBlur result="effect1_foregroundBlur_18_33099" stdDeviation=".1"/></filter><radialGradient id="p" cx="0" cy="0" r="1" gradientTransform="rotate(66.136 -7.342 16.205)scale(14.167 17.3752)" gradientUnits="userSpaceOnUse"><stop stop-color="#CE8418"/><stop offset=".361" stop-color="#CE8418" stop-opacity="0"/></radialGradient><radialGradient id="q" cx="0" cy="0" r="1" gradientTransform="rotate(60.189 -14.993 13.437)scale(12.7299 15.6126)" gradientUnits="userSpaceOnUse"><stop stop-color="#A9913F" stop-opacity=".8"/><stop offset=".431" stop-color="#A9913F" stop-opacity="0"/></radialGradient><radialGradient id="r" cx="0" cy="0" r="1" gradientTransform="matrix(7.1645 -13.67226 16.76842 8.78694 6.329 31.707)" gradientUnits="userSpaceOnUse"><stop stop-color="#F89434"/><stop offset=".349" stop-color="#F89434" stop-opacity="0"/></radialGradient></defs></svg>
